!!! OTL: Berkowitz312
!!! Chapter: 1
!!! Section: III
!!! Page: 75
!!! Mode: 
!!! Encoder: DJB
**kern
*staff1
*I"Piano
=1-
*clefF4
*k[f#c#]
*D:
*M3/4
4A\
4G#\
4Gn\
=2
4F#\
4E\
4D\
=3
2D#\
8E\L
8F#\J
=4
2.E\
=5
4B\
4A#\
4An\
=6
4G\
4F#\
4E\
=7
2E#\
8F#\L
8G\J
=8
2F#\
4d\
=9
4A#\
4B\
4B\
=10
4G#\
2A\
=11
4F#\
4G\
4G\
=12
!!linebreak:original
4E#\
2F#\
=13
8E\L
8G\J
8B\L
8G\J
8E\L
8D\J
=14
4C#/
4.A\
8C#/
=15
4E\
8D#\L
8E\J
8G\L
8C#\J
=16
2.D\
==
*-
